!!!OTL: Der Waechter
!!!ARE: Europa, Mitteleuropa, Deutschland
!!!SCT: A0102
!!!YEM: Copyright 1995, estate of Helmut Schaffrath.
**kern
*ICvox
*Ivox
*M4/2
*k[b-e-]
*g:
{2g
=1
2g
2a
2b-
2g
=2
2dd
4cc
4b-
2a
2a
=3
1g
2r}
{2g
=4
2dd
2ee
2ffn
2dd
=5
2gg
2ee
1dd
=6
1r}
{1gg
=7
2aa
2gg
2ffn
2dd
=8
2ffn
2dd
1b-}
=9
{2r
2ffn
2ffn
2dd
=10
1gg
2dd
2dd
=11
2cc
2b-
2cc}
{2cc
=12
1dd
2b-
2g
=13
1fn
1r}
=14
{1ffn
2ffn
2dd
=15
1gg
2dd
[2dd
=16
2dd]
4cc
4b-
2a
2a
=17
1.g}
==
!!!AGN: Romanze, Ballade, Lied
!! Aus: 68 Lieder. Nuernberg J. Berg und Newber (1542) No. 55.
!!!ONB: ESAC (Essen Associative Code) Database: ALTDEU
!!!AMT: simple quadruple
!!!AIN: vox
!!!EED: Helmut Schaffrath
!!!EEV: 1.0
*-
